X: 1
T:Drummond Castle
M:6/8
L:1/8
C:Trad
R:Jig
K:DDor
|DDD d3| dcA c3| FFF AGF|EGc GEC| DDD d3 |dcA c3|(3ABc A GAc| AGE D2 :|
|F3 FEF|G3 GAG| F2F AGF | EGc GEC|F2F AGF|EGc d2c|(3ABc A GAc| AGE D2 :|
